apps/www/public/images/logos/publicity/chatbase.svg

<svg width="148" height="60" viewBox="0 0 148 60" fill="none" xmlns="http://www.w3.org/2000/svg">
<g clip-path="url(#clip0_2053_10667)">
<path fill-rule="evenodd" clip-rule="evenodd" d="M17.7016 16.5H31.0868C34.9922 16.5 38.1582 19.6053 38.1582 23.4358V36.5642C38.1582 40.3947 34.9922 43.5 31.0868 43.5H17.7016C13.7961 43.5 10.6301 40.3947 10.6301 36.5642V23.4358C10.6301 19.6053 13.7961 16.5 17.7016 16.5ZM27.5195 28.0107H31.9707C31.8865 27.0213 31.6471 26.1433 31.2525 25.3766C30.8579 24.61 30.337 23.965 29.6898 23.4418C29.0427 22.9134 28.2903 22.512 27.4327 22.2374C26.5751 21.9629 25.6359 21.8256 24.6152 21.8256C23.163 21.8256 21.8476 22.139 20.669 22.7658C19.4905 23.3874 18.5539 24.3069 17.8594 25.5243C17.1649 26.7364 16.8176 28.2283 16.8176 29.9999C16.8176 31.7612 17.157 33.2505 17.8357 34.4678C18.5197 35.6852 19.4484 36.6072 20.6217 37.234C21.8003 37.8608 23.1314 38.1742 24.6152 38.1742C25.799 38.1742 26.8381 37.9955 27.7326 37.6381C28.627 37.2807 29.3768 36.8093 29.9819 36.2239C30.5922 35.6334 31.0631 34.991 31.3946 34.2969C31.726 33.5976 31.9181 32.9112 31.9707 32.2378L27.5195 32.2067C27.4669 32.5486 27.3643 32.8568 27.2117 33.1313C27.0644 33.4007 26.8723 33.6312 26.6356 33.8229C26.3988 34.0146 26.1199 34.1622 25.799 34.2658C25.478 34.3642 25.115 34.4134 24.7099 34.4134C23.9996 34.4134 23.3918 34.2502 22.8867 33.9239C22.3816 33.5924 21.9949 33.1003 21.7266 32.4476C21.4635 31.7897 21.332 30.9738 21.332 29.9999C21.332 29.0779 21.4609 28.2879 21.7187 27.63C21.9818 26.9721 22.3659 26.467 22.871 26.1148C23.3813 25.7625 24.0048 25.5864 24.7414 25.5864C25.1624 25.5864 25.5385 25.646 25.87 25.7651C26.2015 25.8791 26.483 26.0449 26.7145 26.2624C26.9513 26.4748 27.1354 26.7286 27.2669 27.0239C27.4037 27.3192 27.4879 27.6481 27.5195 28.0107Z" fill="#7E7E7E"/>
<path d="M59.8925 27.3267H57.3925C57.2965 26.8101 57.1175 26.3556 56.8558 25.963C56.5939 25.5704 56.2735 25.2373 55.8944 24.9635C55.515 24.6897 55.0902 24.4831 54.6203 24.3436C54.1556 24.2042 53.6616 24.1345 53.138 24.1345C52.1925 24.1345 51.3459 24.3643 50.5981 24.824C49.8556 25.2838 49.2679 25.9578 48.8353 26.8463C48.408 27.7347 48.1943 28.8195 48.1943 30.1005C48.1943 31.3919 48.408 32.4818 48.8353 33.3703C49.2679 34.2587 49.8582 34.9302 50.606 35.3848C51.3538 35.8393 52.1953 36.0666 53.1299 36.0666C53.6482 36.0666 54.1396 35.9995 54.6043 35.8652C55.0743 35.7257 55.4989 35.5217 55.8782 35.2531C56.2575 34.9844 56.578 34.6565 56.8397 34.269C57.1069 33.8765 57.291 33.4271 57.3925 32.9209L59.8925 32.9286C59.7589 33.7086 59.4998 34.4266 59.1152 35.0826C58.7361 35.7334 58.2471 36.2965 57.6488 36.7717C57.0561 37.2417 56.3778 37.6059 55.6138 37.8642C54.8501 38.1225 54.0167 38.2516 53.114 38.2516C51.6932 38.2516 50.4271 37.9262 49.3159 37.2753C48.205 36.6193 47.3288 35.6818 46.6879 34.4627C46.0522 33.2437 45.7345 31.7896 45.7345 30.1005C45.7345 28.4063 46.055 26.9522 46.696 25.7383C47.3369 24.5193 48.213 23.5843 49.324 22.9335C50.4352 22.2775 51.6985 21.9495 53.114 21.9495C53.9846 21.9495 54.7965 22.0708 55.5496 22.3136C56.3083 22.5512 56.9892 22.9025 57.5928 23.3674C58.1964 23.8271 58.6959 24.3901 59.0912 25.0565C59.4864 25.7176 59.7536 26.4744 59.8925 27.3267Z" fill="#7E7E7E"/>
<path d="M63.7048 30.9683V38.0346H61.3091V22.1664H63.6727V28.0705H63.825C64.1134 27.43 64.5541 26.9212 65.1468 26.5441C65.7398 26.167 66.5144 25.9785 67.4706 25.9785C68.3146 25.9785 69.0515 26.1464 69.6819 26.4821C70.3176 26.8179 70.809 27.3189 71.1563 27.9853C71.5089 28.6464 71.6851 29.4729 71.6851 30.4647V38.0346H69.2894V30.7436C69.2894 29.8706 69.0571 29.194 68.5921 28.7136C68.1275 28.228 67.4812 27.9853 66.6533 27.9853C66.0871 27.9853 65.5795 28.1015 65.1309 28.3339C64.6875 28.5664 64.3377 28.9073 64.0813 29.3567C63.8303 29.8009 63.7048 30.3381 63.7048 30.9683Z" fill="#7E7E7E"/>
<path d="M77.11 38.2983C76.3302 38.2983 75.6253 38.1589 74.9949 37.8799C74.3646 37.5958 73.865 37.1852 73.4965 36.648C73.1334 36.1108 72.9518 35.4522 72.9518 34.6722C72.9518 34.0007 73.0851 33.448 73.3523 33.0141C73.6193 32.5802 73.9799 32.2367 74.434 31.9836C74.8881 31.7305 75.3955 31.5393 75.9564 31.4102C76.5173 31.2811 77.0888 31.1829 77.671 31.1158C78.4081 31.0331 79.0064 30.966 79.4658 30.9143C79.9252 30.8575 80.2591 30.7671 80.4674 30.6431C80.6756 30.5192 80.7799 30.3177 80.7799 30.0388V29.9846C80.7799 29.3079 80.5821 28.7836 80.1869 28.4117C79.7969 28.0398 79.2148 27.8538 78.4402 27.8538C77.6336 27.8538 76.9979 28.0268 76.5332 28.3729C76.0738 28.7139 75.7561 29.0935 75.5798 29.5119L73.3283 29.016C73.5953 28.2929 73.9852 27.7092 74.4982 27.265C75.0161 26.8156 75.6119 26.4902 76.285 26.2887C76.958 26.0821 77.6656 25.9788 78.4081 25.9788C78.8996 25.9788 79.4204 26.0356 79.9707 26.1492C80.526 26.2577 81.0443 26.4591 81.5249 26.7536C82.011 27.048 82.4091 27.469 82.7189 28.0165C83.0286 28.5589 83.1836 29.264 83.1836 30.1318V38.0349H80.844V36.4078H80.7478C80.593 36.7074 80.3606 37.0018 80.0507 37.2911C79.7409 37.5803 79.3428 37.8205 78.8569 38.0117C78.3708 38.2028 77.7886 38.2983 77.11 38.2983ZM77.631 36.4388C78.2932 36.4388 78.8595 36.3122 79.3295 36.0591C79.805 35.806 80.1656 35.4754 80.4111 35.0674C80.6624 34.6541 80.7879 34.2125 80.7879 33.7424V32.2083C80.7023 32.2909 80.5369 32.3684 80.2912 32.4407C80.0507 32.5079 79.7757 32.5673 79.4658 32.6189C79.156 32.6654 78.8542 32.7093 78.5604 32.7507C78.2667 32.7868 78.021 32.8178 77.8232 32.8436C77.3585 32.9004 76.9338 32.996 76.5494 33.1303C76.17 33.2646 75.8655 33.4583 75.6359 33.7114C75.4114 33.9594 75.2992 34.29 75.2992 34.7032C75.2992 35.2765 75.5185 35.7105 75.9564 36.0049C76.3943 36.2941 76.9524 36.4388 77.631 36.4388Z" fill="#7E7E7E"/>
<path d="M90.766 26.1335V27.9931H84.0436V26.1335H90.766ZM85.8463 23.2822H88.242V34.5403C88.242 34.9897 88.3114 35.328 88.4503 35.5553C88.5892 35.7774 88.7681 35.9298 88.987 36.0125C89.2115 36.0899 89.4545 36.1287 89.7164 36.1287C89.9086 36.1287 90.0768 36.1158 90.221 36.0899C90.3652 36.0641 90.4773 36.0434 90.5576 36.028L90.9902 37.9417C90.8513 37.9934 90.6536 38.0451 90.3973 38.0967C90.1409 38.1535 89.8204 38.1845 89.4358 38.1897C88.8054 38.2 88.218 38.0916 87.673 37.8643C87.1282 37.637 86.6875 37.2857 86.3511 36.8105C86.0145 36.3353 85.8463 35.7387 85.8463 35.0207V23.2822Z" fill="#7E7E7E"/>
<path d="M92.5184 38.0346V22.1664H94.9141V28.0627H95.0583C95.1972 27.8148 95.3975 27.5281 95.6594 27.2027C95.9211 26.8773 96.2842 26.5932 96.7489 26.3504C97.2136 26.1025 97.8281 25.9785 98.5918 25.9785C99.5853 25.9785 100.472 26.2213 101.252 26.7068C102.032 27.1924 102.643 27.8923 103.087 28.8066C103.535 29.7209 103.76 30.8211 103.76 32.1073C103.76 33.3935 103.538 34.4963 103.095 35.4158C102.652 36.33 102.043 37.0351 101.268 37.531C100.493 38.0217 99.6093 38.2671 98.6158 38.2671C97.868 38.2671 97.2565 38.1457 96.781 37.9029C96.311 37.6601 95.9423 37.376 95.6753 37.0506C95.4081 36.7252 95.2025 36.4359 95.0583 36.1828H94.8581V38.0346H92.5184ZM94.8661 32.084C94.8661 32.9208 94.9917 33.6543 95.2427 34.2845C95.4937 34.9147 95.8569 35.408 96.3322 35.7644C96.8078 36.1157 97.3899 36.2913 98.0791 36.2913C98.7948 36.2913 99.3931 36.1079 99.8737 35.7412C100.355 35.3693 100.718 34.8656 100.963 34.2303C101.215 33.5949 101.34 32.8795 101.34 32.084C101.34 31.2989 101.217 30.5938 100.972 29.9688C100.731 29.3438 100.368 28.8505 99.8818 28.4889C99.4012 28.1273 98.8001 27.9465 98.0791 27.9465C97.3846 27.9465 96.7972 28.1196 96.3163 28.4657C95.841 28.8117 95.4804 29.2947 95.2346 29.9146C94.9889 30.5344 94.8661 31.2576 94.8661 32.084Z" fill="#7E7E7E"/>
<path d="M108.678 38.2983C107.898 38.2983 107.193 38.1589 106.563 37.8799C105.932 37.5958 105.433 37.1852 105.064 36.648C104.701 36.1108 104.52 35.4522 104.52 34.6722C104.52 34.0007 104.653 33.448 104.92 33.0141C105.187 32.5802 105.548 32.2367 106.002 31.9836C106.456 31.7305 106.963 31.5393 107.524 31.4102C108.085 31.2811 108.657 31.1829 109.239 31.1158C109.976 31.0331 110.574 30.966 111.034 30.9143C111.493 30.8575 111.827 30.7671 112.035 30.6431C112.244 30.5192 112.348 30.3177 112.348 30.0388V29.9846C112.348 29.3079 112.15 28.7836 111.755 28.4117C111.365 28.0398 110.783 27.8538 110.008 27.8538C109.201 27.8538 108.566 28.0268 108.101 28.3729C107.642 28.7139 107.324 29.0935 107.148 29.5119L104.896 29.016C105.163 28.2929 105.553 27.7092 106.066 27.265C106.584 26.8156 107.18 26.4902 107.853 26.2887C108.526 26.0821 109.234 25.9788 109.976 25.9788C110.467 25.9788 110.988 26.0356 111.539 26.1492C112.094 26.2577 112.612 26.4591 113.093 26.7536C113.579 27.048 113.977 27.469 114.287 28.0165C114.596 28.5589 114.752 29.264 114.752 30.1318V38.0349H112.412V36.4078H112.316C112.161 36.7074 111.928 37.0018 111.619 37.2911C111.309 37.5803 110.911 37.8205 110.425 38.0117C109.939 38.2028 109.357 38.2983 108.678 38.2983ZM109.199 36.4388C109.861 36.4388 110.427 36.3122 110.898 36.0591C111.373 35.806 111.734 35.4754 111.979 35.0674C112.23 34.6541 112.356 34.2125 112.356 33.7424V32.2083C112.27 32.2909 112.105 32.3684 111.859 32.4407C111.619 32.5079 111.344 32.5673 111.034 32.6189C110.724 32.6654 110.422 32.7093 110.128 32.7507C109.835 32.7868 109.589 32.8178 109.391 32.8436C108.926 32.9004 108.502 32.996 108.117 33.1303C107.738 33.2646 107.433 33.4583 107.204 33.7114C106.979 33.9594 106.867 34.29 106.867 34.7032C106.867 35.2765 107.086 35.7105 107.524 36.0049C107.962 36.2941 108.521 36.4388 109.199 36.4388Z" fill="#7E7E7E"/>
<path d="M125.811 29.0393L123.64 29.4112C123.549 29.1426 123.404 28.8869 123.207 28.6441C123.014 28.4014 122.753 28.2025 122.422 28.0475C122.09 27.8926 121.676 27.8151 121.18 27.8151C120.501 27.8151 119.935 27.9623 119.481 28.2567C119.027 28.546 118.8 28.9205 118.8 29.3802C118.8 29.7779 118.952 30.0982 119.257 30.341C119.561 30.5837 120.053 30.7826 120.731 30.9376L122.686 31.3715C123.819 31.6246 124.662 32.0146 125.218 32.5414C125.774 33.0683 126.051 33.7528 126.051 34.5947C126.051 35.3076 125.837 35.9429 125.41 36.5008C124.988 37.0535 124.398 37.4874 123.64 37.8025C122.886 38.1175 122.013 38.2751 121.02 38.2751C119.641 38.2751 118.517 37.991 117.646 37.4228C116.775 36.8494 116.241 36.0359 116.044 34.9821L118.359 34.6412C118.504 35.2249 118.8 35.6666 119.249 35.9661C119.697 36.2606 120.282 36.4078 121.003 36.4078C121.789 36.4078 122.416 36.2503 122.886 35.9351C123.356 35.6149 123.592 35.2249 123.592 34.7652C123.592 34.3933 123.447 34.0808 123.159 33.8277C122.876 33.5746 122.44 33.3834 121.853 33.2543L119.769 32.8126C118.621 32.5595 117.772 32.1566 117.222 31.6039C116.677 31.0512 116.404 30.3513 116.404 29.5042C116.404 28.8017 116.607 28.187 117.013 27.6601C117.419 27.1332 117.98 26.7226 118.696 26.4281C119.412 26.1285 120.232 25.9788 121.156 25.9788C122.486 25.9788 123.533 26.2577 124.297 26.8156C125.06 27.3683 125.565 28.1095 125.811 29.0393Z" fill="#7E7E7E"/>
<path d="M132.636 38.2751C131.423 38.2751 130.379 38.0246 129.503 37.5235C128.632 37.0173 127.959 36.3071 127.484 35.3928C127.014 34.4733 126.779 33.3963 126.779 32.1618C126.779 30.9427 127.014 29.8683 127.484 28.9386C127.959 28.0088 128.622 27.283 129.471 26.7613C130.326 26.2396 131.324 25.9788 132.468 25.9788C133.162 25.9788 133.835 26.0898 134.487 26.3119C135.138 26.534 135.723 26.8827 136.241 27.3579C136.76 27.8332 137.168 28.4504 137.467 29.2097C137.767 29.9639 137.916 30.8808 137.916 31.9603V32.7816H128.133V31.0461H135.568C135.568 30.4365 135.44 29.8968 135.184 29.4267C134.927 28.9515 134.567 28.577 134.102 28.3032C133.643 28.0294 133.103 27.8926 132.484 27.8926C131.811 27.8926 131.223 28.0527 130.721 28.3729C130.224 28.688 129.839 29.1013 129.567 29.6126C129.3 30.1189 129.166 30.669 129.166 31.263V32.6189C129.166 33.4144 129.311 34.0911 129.599 34.649C129.893 35.2068 130.302 35.633 130.825 35.9274C131.348 36.2167 131.96 36.3613 132.66 36.3613C133.114 36.3613 133.528 36.2993 133.902 36.1753C134.276 36.0462 134.599 35.8551 134.871 35.602C135.144 35.3489 135.352 35.0364 135.496 34.6645L137.764 35.0596C137.582 35.7053 137.256 36.2709 136.786 36.7565C136.322 37.2368 135.737 37.6113 135.032 37.8799C134.332 38.1434 133.533 38.2751 132.636 38.2751Z" fill="#7E7E7E"/>
</g>
<defs>
<clipPath id="clip0_2053_10667">
<rect width="127.286" height="27" fill="white" transform="translate(10.63 16.5)"/>
</clipPath>
</defs>
</svg>

<svg xmlns="http://www.w3.org/2000/svg" width="148" height="60" fill="none" viewBox="0 0 148 60"><g fill="#7e7e7e" clip-path="url(#a)"><path fill-rule="evenodd" d="M17.702 16.5h13.385c3.905 0 7.071 3.105 7.071 6.936v13.128c0 3.83-3.166 6.936-7.071 6.936H17.702c-3.906 0-7.072-3.105-7.072-6.936V23.436c0-3.83 3.166-6.936 7.072-6.936m9.817 11.51h4.452q-.127-1.484-.718-2.633a6 6 0 0 0-1.563-1.935 6.8 6.8 0 0 0-2.257-1.205q-1.287-.411-2.818-.411-2.178 0-3.946.94-1.767.931-2.81 2.758-1.041 1.818-1.041 4.476 0 2.641 1.018 4.468 1.025 1.826 2.786 2.766 1.768.94 3.993.94 1.776 0 3.118-.536t2.249-1.414a6.7 6.7 0 0 0 1.413-1.927q.497-1.05.576-2.06l-4.451-.03q-.08.513-.308.924-.222.405-.576.692-.355.288-.837.443a3.7 3.7 0 0 1-1.09.147q-1.065 0-1.822-.49-.758-.496-1.16-1.475-.396-.987-.395-2.448 0-1.383.387-2.37.394-.987 1.152-1.515.766-.529 1.87-.529.631 0 1.129.18.497.17.845.496.354.32.552.762.205.443.253.987" clip-rule="evenodd"/><path d="M59.893 27.327h-2.5a3.6 3.6 0 0 0-.537-1.364 3.9 3.9 0 0 0-.962-1 4.2 4.2 0 0 0-1.274-.62 5.1 5.1 0 0 0-1.482-.209q-1.418 0-2.54.69-1.113.69-1.763 2.022-.64 1.334-.64 3.255 0 1.935.64 3.27.65 1.332 1.771 2.014 1.123.681 2.524.682.777 0 1.474-.202.705-.21 1.274-.612.57-.403.962-.984.4-.588.552-1.348l2.5.008a6.3 6.3 0 0 1-.777 2.154 6 6 0 0 1-1.466 1.689 6.7 6.7 0 0 1-2.035 1.092 7.8 7.8 0 0 1-2.5.388q-2.13 0-3.798-.977-1.666-.984-2.628-2.812-.954-1.829-.954-4.363 0-2.541.962-4.362.96-1.829 2.628-2.805 1.667-.983 3.79-.983 1.306-.001 2.436.364 1.138.355 2.043 1.053a5.9 5.9 0 0 1 1.498 1.69q.593.99.801 2.27M63.705 30.968v7.067h-2.396V22.166h2.364v5.904h.152q.433-.96 1.322-1.526t2.324-.566q1.266 0 2.21.504a3.46 3.46 0 0 1 1.475 1.503q.53.992.53 2.48v7.57h-2.397v-7.291q0-1.31-.697-2.03-.697-.729-1.939-.729-.85 0-1.522.349a2.56 2.56 0 0 0-1.05 1.023q-.375.666-.376 1.611M77.11 38.298q-1.17 0-2.115-.418a3.53 3.53 0 0 1-1.499-1.232q-.544-.806-.544-1.976 0-1.007.4-1.658a2.9 2.9 0 0 1 1.082-1.03 5.8 5.8 0 0 1 1.522-.574q.842-.194 1.715-.294l1.795-.202q.69-.085 1.001-.27.313-.187.313-.605v-.054q0-1.015-.593-1.573-.585-.558-1.747-.558-1.21 0-1.907.519-.69.51-.953 1.139l-2.252-.496q.4-1.085 1.17-1.751a4.8 4.8 0 0 1 1.787-.976 7.2 7.2 0 0 1 2.123-.31 7.7 7.7 0 0 1 1.563.17q.832.163 1.554.605.729.441 1.194 1.262.465.814.465 2.116v7.903h-2.34v-1.627h-.096q-.232.45-.697.883-.465.435-1.194.72-.729.288-1.747.287m.521-1.86q.993 0 1.698-.379.714-.38 1.082-.992.377-.62.377-1.325v-1.534q-.129.124-.497.233a8 8 0 0 1-.825.178l-.906.132q-.44.054-.737.093-.697.084-1.274.286-.569.202-.913.581-.337.372-.337.992 0 .86.657 1.302.657.434 1.675.434M90.766 26.134v1.86h-6.722v-1.86zm-4.92-2.852h2.396V34.54q0 .675.208 1.015.21.333.537.458.337.116.73.116.288 0 .504-.04.216-.038.337-.061l.432 1.914a4 4 0 0 1-.593.155 5 5 0 0 1-.961.093 4.3 4.3 0 0 1-1.763-.326 3 3 0 0 1-1.322-1.053q-.505-.713-.505-1.79zM92.518 38.035V22.166h2.396v5.897h.144q.21-.372.601-.86.393-.489 1.09-.853.698-.372 1.843-.372 1.49 0 2.66.729 1.17.727 1.835 2.1.673 1.371.673 3.3 0 1.93-.665 3.309-.665 1.372-1.827 2.115-1.162.736-2.652.736-1.122 0-1.835-.364-.705-.365-1.106-.852a6.4 6.4 0 0 1-.617-.868h-.2v1.852zm2.348-5.951q0 1.255.377 2.2.376.946 1.09 1.48.713.527 1.746.527 1.074 0 1.795-.55.722-.558 1.089-1.51.377-.954.377-2.147 0-1.178-.368-2.115-.361-.938-1.09-1.48-.72-.543-1.803-.543-1.041 0-1.763.52-.713.519-1.081 1.449-.369.93-.369 2.169M108.678 38.298q-1.17 0-2.115-.418a3.54 3.54 0 0 1-1.499-1.232q-.544-.806-.544-1.976 0-1.007.4-1.658a2.9 2.9 0 0 1 1.082-1.03 5.8 5.8 0 0 1 1.522-.574q.842-.194 1.715-.294l1.795-.202q.689-.085 1.001-.27.313-.187.313-.605v-.054q0-1.015-.593-1.573-.585-.558-1.747-.558-1.21 0-1.907.519-.689.51-.953 1.139l-2.252-.496q.4-1.085 1.17-1.751a4.8 4.8 0 0 1 1.787-.976 7.2 7.2 0 0 1 2.123-.31q.737 0 1.563.17.833.163 1.554.605.729.441 1.194 1.262.464.814.465 2.116v7.903h-2.34v-1.627h-.096q-.233.45-.697.883-.465.435-1.194.72-.729.288-1.747.287m.521-1.86q.993 0 1.699-.379.713-.38 1.081-.992a2.5 2.5 0 0 0 .377-1.325v-1.534q-.129.124-.497.233-.36.1-.825.178l-.906.132q-.44.054-.737.093a6 6 0 0 0-1.274.286 2.2 2.2 0 0 0-.913.581q-.337.372-.337.992 0 .86.657 1.302.657.434 1.675.434M125.811 29.04l-2.171.371a2.5 2.5 0 0 0-.433-.767 2.14 2.14 0 0 0-.785-.596q-.498-.233-1.242-.233-1.018 0-1.699.442-.681.433-.681 1.123 0 .597.457.961t1.474.597l1.955.434q1.699.38 2.532 1.17.834.789.833 2.053 0 1.07-.641 1.906-.633.829-1.77 1.302-1.13.472-2.62.472-2.068 0-3.374-.852-1.306-.86-1.602-2.44l2.315-.342q.217.876.89 1.325.672.442 1.754.442 1.178 0 1.883-.473.706-.48.706-1.17a1.2 1.2 0 0 0-.433-.937q-.425-.38-1.306-.574l-2.084-.441q-1.722-.38-2.547-1.21-.818-.828-.818-2.099 0-1.053.609-1.844.609-.79 1.683-1.232 1.074-.45 2.46-.45 1.995 0 3.141.838a3.9 3.9 0 0 1 1.514 2.223M132.636 38.275q-1.82 0-3.133-.751a5.16 5.16 0 0 1-2.019-2.131q-.705-1.38-.705-3.231 0-1.83.705-3.223.713-1.395 1.987-2.178 1.282-.782 2.997-.782 1.041 0 2.019.333.977.333 1.754 1.046.778.712 1.226 1.852.45 1.13.449 2.75v.822h-9.783v-1.736h7.435q0-.915-.384-1.62a2.86 2.86 0 0 0-1.082-1.123q-.689-.41-1.618-.41-1.01 0-1.763.48a3.26 3.26 0 0 0-1.154 1.24 3.5 3.5 0 0 0-.401 1.65v1.356q0 1.193.433 2.03.441.837 1.226 1.278.785.434 1.835.434a4 4 0 0 0 1.242-.186q.561-.193.969-.573.41-.38.625-.937l2.268.395a3.94 3.94 0 0 1-.978 1.697q-.696.72-1.754 1.123-1.05.395-2.396.395"/></g><defs><clipPath id="a"><path fill="#fff" d="M10.63 16.5h127.286v27H10.63z"/></clipPath></defs></svg>
